icons/outline/photo-sensor-3.svg

<!--
category: Photography
tags: [focus, lens, photograpy, camera]
version: "2.5"
unicode: "f797"
-->
<svg
  xmlns="http://www.w3.org/2000/svg"
  width="24"
  height="24"
  viewBox="0 0 24 24"
  fill="none"
  stroke="currentColor"
  stroke-width="2"
  stroke-linecap="round"
  stroke-linejoin="round"
>
  <path d="M17 4h1a2 2 0 0 1 2 2v1m0 10v1a2 2 0 0 1 -2 2h-1m-10 0h-1a2 2 0 0 1 -2 -2v-1m0 -10v-1a2 2 0 0 1 2 -2h1m5 8m-3 0a3 3 0 1 0 6 0a3 3 0 1 0 -6 0m3 6v2m-8 -8h2m6 -8v2m8 6h-2" />
</svg>

<!--
category: Photography
tags: [focus, lens, photograpy, camera]
version: "2.5"
unicode: "f797"
-->
<svg
  xmlns="http://www.w3.org/2000/svg"
  width="24"
  height="24"
  viewBox="0 0 24 24"
  fill="none"
  stroke="currentColor"
  stroke-width="2"
  stroke-linecap="round"
  stroke-linejoin="round"
>
    <path d="M17 4h1a2 2 0 0 1 2 2v1M20 17v1a2 2 0 0 1 -2 2h-1M7 20h-1a2 2 0 0 1 -2 -2v-1M4 7v-1a2 2 0 0 1 2 -2h1M12 12m-3 0a3 3 0 1 0 6 0a3 3 0 1 0 -6 0M12 18v2M4 12h2M12 4v2M20 12h-2" />
</svg>
